src/mimes/16/download.svg

<svg width="16" height="16" xmlns="http://www.w3.org/2000/svg">
 <path d="m6 2v4h1v-3h2v3h1v-4h-4zm-2.293 4-0.707 0.707 5 5 5-5-0.707-0.707-4.293 4.293-4.293-4.293zm-1.707 6v2h12v-2h-1v1h-10v-1h-1z" fill="#a3be8c"/>
</svg>

<svg xmlns="http://www.w3.org/2000/svg" width="16" height="16"><path d="M6 2v4h1V3h2v3h1V2H6zM3.707 6L3 6.707 6.293 10 8 11.707 9.707 10 13 6.707 12.293 6 9 9.293l-1 1-1-1L3.707 6zM2 12v2h12v-2h-1v1H3v-1H2z" fill="#a3be8c"/></svg>
